svg/ionicons/arrow-up-right-box.svg

<svg width="512" height="512" viewBox="0 0 512 512" xmlns="http://www.w3.org/2000/svg">
<path fill-rule="evenodd" clip-rule="evenodd" d="M331.636 32L464 32C468.243 32 472.313 33.6857 475.314 36.6863C478.314 39.6868 480 43.7565 480 48V180.364C480 189.2 472.837 196.364 464 196.364C455.163 196.364 448 189.2 448 180.364V86.6274L396.872 137.755C394.253 133.039 390.972 128.667 387.089 124.784C383.251 120.946 378.935 117.696 374.281 115.092L425.373 64L331.636 64C322.8 64 315.636 56.8365 315.636 48C315.636 39.1634 322.8 32 331.636 32ZM374.281 115.092C365.621 110.246 355.79 107.636 345.691 107.636H90.5455C75.0182 107.636 60.127 113.805 49.1476 124.784C38.1682 135.763 32 150.655 32 166.182V421.455C32 436.982 38.1682 451.873 49.1476 462.852C60.127 473.832 75.0182 480 90.5455 480H345.818C361.345 480 376.237 473.832 387.216 462.852C398.195 451.873 404.364 436.982 404.364 421.455V166.182C404.364 165.374 404.304 164.58 404.188 163.804C403.815 154.606 401.28 145.693 396.872 137.755L227.314 307.314C221.065 313.562 210.935 313.562 204.686 307.314C198.438 301.065 198.438 290.935 204.686 284.686L374.281 115.092Z" />
</svg>

<svg xmlns="http://www.w3.org/2000/svg" width="512" height="512" viewBox="0 0 512 512"><path fill-rule="evenodd" d="M331.636 32H464a16 16 0 0116 16v132.364c0 8.836-7.163 16-16 16s-16-7.164-16-16V86.627l-51.128 51.128a58.5 58.5 0 00-22.591-22.663L425.373 64h-93.737c-8.836 0-16-7.163-16-16s7.164-16 16-16m42.645 83.092a58.54 58.54 0 00-28.59-7.456H90.546A58.547 58.547 0 0032 166.182v255.273A58.543 58.543 0 0090.546 480h255.272a58.543 58.543 0 0058.546-58.545V166.182q-.001-1.213-.176-2.378a58.54 58.54 0 00-7.316-26.049L227.314 307.314c-6.249 6.248-16.379 6.248-22.628 0s-6.248-16.379 0-22.628z" clip-rule="evenodd"/></svg>
